X:1
T:Title
L:1/8
Q:1/4=120
M:6/8
K:A
V:1 treble nm="Church Organ, Staff"
V:1
 E E2 A A2 | B c2 d e2 | A B2 A B2 | G A2- A A2 | E E2 A A2 | B c2 d e2 | A B2 A B2 | G A2- A A2 | %8
w: By~T.~Crampton * * *||||||||
 B B2 A G2 | A B2 e B2 | B c2 B c2 | ^d e2- e e2 | e e2 d c2 | e d2 c B2 | d c2 A B2 | %15
w: |||||||
 G A2- A A2 |] %16
w: |

